X: 7
T: the Steam Packet
%%VWML:Button1818-2292c-p4-0
F:http://www.vwml.org/record/Button1818/2292c/p4
B: "Le Sylphe, Twenty Four Country Dances with Figures for the Year 1818", Button & Whitaker, p.4 #1
F: http://www.vwml.org/browse/browse-collections-dance-tune-books/browse-button1818
Z: 2014 John Chambers <jc:trillian.mit.edu>
N: The Figures by Mr WILSON.
M: 3/4
L: 1/8
K: D
% - - - - - - - - - - - - - - - - - - - - - - - - - - - - -
FG |\
A4(BA) | A2(f2d2) | A4(BA) | A4(g2e2) |\
A4(BA) | A2(df)a2 | c2c2c2 | d4 :|
|: (cd) |\
(ef)(ef)(ef) | e2(a^gfe) | (dcBcde) | (cB).A.B.c.d |\
(ef)(ef)(ef) | e2(a^gfe) | (dcBA)(^GB) | A4 :|
|: a2 |\
(fa)(fa)(d'a) | (fa)(fa)(d'a) | (^ab)(ge)(ce) | (dcdefg) |\
(fa)(fa)(d'a) | (fa)(fa)(d'a) | (^ab)(ge)(ce) | d4 :|
% - - - - - - - - - - Dance description - - - - - - - - - -
W: WALTZ FIGURE        (Each strain repeated)
W:
W:The 3 Ladies & 3 Gent: set to each other & turn a la waltz |: whole
W:poussette with sauteuse step |: & swing corners a la waltz |: .
W:
W: COUNTRY DANCE FIGURE        (Each strain repeated)
W:
W:The 1st Lady leads down 2d Gent: 1st Gent: leads down 2d Lady |: lead your partner
W:down the mid: up again allemande |: lead thro' bottom & half poussette with top Cu: |: .
W:
%%sep 1 1 450
T: the Old Guinea
%R: waltz
B: "Le Sylphe, Twenty Four Country Dances with Figures for the Year 1818", Button & Whitaker, p.4 #2
F: http://www.vwml.org/browse/browse-collections-dance-tune-books/browse-button1818
Z: 2014 John Chambers <jc:trillian.mit.edu>
N: The Figures by Mr WILSON.
M: 3/4
L: 1/8
K: C
% - - - - - - - - - - - - - - - - - - - - - - - - - - - - -
cd |\
e2cGce | f2dGBc | d2BGBd | g2eGcd |\
e2cGce | f2dGBc | d2BGBd | c4 :|
|: e2 |\
E2E2^F^G | A2A2(Bc) | B2Bfed | d2c2ag |\
^f2f2f2 | g2agfe | (dcBcdB) | c4 :|
|: (de) |\
.f.e.d.cB2 | (B2c4) | (^cd)d4 | (^d2e4) |\
.f.e.d.cB2 | B2c4 | (^cd)f2B2 | c4 :|
dd |\
d2d2d2 | d2e2^f2 | g2a2b2 | c'4b2 |\
e'4d'2 | ^c'2=c'2b2 | (ba)(ag)(g^f) | "_D.C."g4 |]
% - - - - - - - - - - Dance description - - - - - - - - - -
W: WALTZ FIGURE    (1st 2d & 3d strains repeated 4th play'd straight thro' & D.C.)
W:
W:The 1st Lady turns 2d Gent a la waltz 1st Gent:
W:turns 2d Lady a la waltz |: promenade 3 Cu: |:
W:whole poussette |: swing cor.s a la waltz |.
W:lead thro' bottom & chain figure 4 round with top Cu: |.
W:
W: COUNTRY DANCE FIGURE        (Tune play'd as mark'd)
W:
W:Set & change sides with 2d Cu: set & back again |:
W:swing with right hands round 2d Cu: then
W:with left |: 2d Cu: do same |: down the mid: up again |.
W:& half poussette with top Cu: |. .
W:
%%sep 1 1 450
